svgs/regular/square-person-confined.svg

<svg xmlns="http://www.w3.org/2000/svg" viewBox="0 0 448 512"><!--! Font Awesome Pro 6.4.2 by @fontawesome - https://fontawesome.com License - https://fontawesome.com/license (Commercial License) Copyright 2023 Fonticons, Inc. --><path d="M64 80c-8.8 0-16 7.2-16 16V416c0 8.8 7.2 16 16 16H384c8.8 0 16-7.2 16-16V96c0-8.8-7.2-16-16-16H64zM0 96C0 60.7 28.7 32 64 32H384c35.3 0 64 28.7 64 64V416c0 35.3-28.7 64-64 64H64c-35.3 0-64-28.7-64-64V96zM292 200c33.1 0 60 26.9 60 60v88c0 31.8-24.7 57.8-56 59.9v.1c-.7 0-1.5 0-2.2 0c-.6 0-1.2 0-1.8 0c-5.7 0-11.1-.8-16.3-2.2c-19.6-4.4-37.5-15.1-50.7-30.7l-44.6-52.7-39.3 73c-6.3 11.7-20.8 16-32.5 9.8s-16-20.8-9.8-32.5l56-104c3.8-7 10.7-11.7 18.6-12.5s15.7 2.3 20.8 8.4L232 309V260c0-33.1 26.9-60 60-60zm-4.2 159.2c1.8 .3 3.7 .6 5.6 .7c6-.7 10.6-5.8 10.6-11.9V260c0-6.6-5.4-12-12-12s-12 5.4-12 12v88c0 5.2 3.2 9.5 7.8 11.2zM208 112a48 48 0 1 1 0 96 48 48 0 1 1 0-96z"/></svg>

<svg xmlns="http://www.w3.org/2000/svg" viewBox="0 0 448 512"><!--! Font Awesome Pro 6.1.1 by @fontawesome - https://fontawesome.com License - https://fontawesome.com/license (Commercial License) Copyright 2022 Fonticons, Inc. --><path d="M352 260V348C352 379.8 327.3 405.8 296 407.9V408C295.3 408 294.5 407.1 293.8 407.1C293.2 407.1 292.6 408 292 408C286.3 408 280.9 407.2 275.7 405.8C256.1 401.4 238.2 390.7 225 375.1L180.4 322.4L141.1 395.4C134.8 407 120.3 411.4 108.6 405.1C96.95 398.8 92.58 384.3 98.87 372.6L154.9 268.6C158.6 261.6 165.6 256.1 173.5 256.1C181.4 255.3 189.2 258.4 194.3 264.5L232 309V260C232 226.9 258.9 200 292 200C325.1 200 352 226.9 352 260V260zM287.8 359.2C289.6 359.6 291.5 359.8 293.4 359.9C299.4 359.2 304 354.2 304 348V260C304 253.4 298.6 248 292 248C285.4 248 280 253.4 280 260V348C280 353.2 283.3 357.6 287.8 359.3V359.2zM160 160C160 133.5 181.5 112 208 112C234.5 112 256 133.5 256 160C256 186.5 234.5 208 208 208C181.5 208 160 186.5 160 160zM0 96C0 60.65 28.65 32 64 32H384C419.3 32 448 60.65 448 96V416C448 451.3 419.3 480 384 480H64C28.65 480 0 451.3 0 416V96zM48 96V416C48 424.8 55.16 432 64 432H384C392.8 432 400 424.8 400 416V96C400 87.16 392.8 80 384 80H64C55.16 80 48 87.16 48 96z"/></svg>
